!!!!SEGMENT: sonata17-2.krn
!!!COM: Beethoven, Ludwig van
!!!CDT: 1770///-1827///
!!!OTL: Piano Sonata no. 17 in D minor
!!!OTP: tempest
!!!OPS: 31
!!!ONM: 2
!!!OMV: 2
!!!OMD: Adagio
!!!AGN: Sonata form
**kern	**kern	**dynam
*staff2	*staff1	*staff1/2
*Ipiano	*Ipiano	*Ipiano
*clefF4	*clefF4	*
*k[b-e-]	*k[b-e-]	*
*B-:	*B-:	*
*M3/4	*M3/4	*
*MM60	*MM60	*
=1-	=1-	=1-
2.BBB-: 2.FF: 2.BB-:	2.D: 2.F: 2.B-:	p
*	*clefG2	*
=2	=2	=2
4r	(8..ddL	.
.	32ee-Jkk)	.
4r	4ff	.
*	*clefF4	*
4BBB- 4FF 4BB-	4D 4F 4B-	.
=3	=3	=3
2.CC 2.FF 2.C	2.E- 2.F 2.A	.
*	*clefG2	*
=4	=4	=4
4r	(8..aaL	.
.	32bb-Jkk)	.
4r	4ccc	.
4AA\ 4F\	4c 4e-	.
=5	=5	=5
2.BB- 2.F	2.B- 2.d	<
.	(d32qLL	.
.	f32q	.
.	e-32q	.
.	d32q	.
.	e-32q	.
.	f32q	.
.	g32q	.
.	a32q	.
.	b-32q	.
.	cc32qJJ)	.
=6	=6	=6
4r	(8..ddL	.
.	32ee-Jkk)	.
4r	4ff	.
!	!	!LO:DY:rj
4D 4Bn	4a- 4ff	[ sf
!!LO:LB:g=original
=7	=7	=7
*^	*^	*
4Bn	4.E-	(4ff	4.g	p
8cL	.	8ee-L	.	.
8d	8FL	8dd)	8b-XL	<
8e-	(8G'	(8cc')	8b-	.
8enJ	8G'J)	8cc'J)	8b-J)	.
=8	=8	=8	=8	=8
(4en	4.F	8ccTL	(4b-	>
.	.	(<bn16qLL	.	.
.	.	cc16qJJ	.	.
.	.	16ddL)	.	.
.	.	16ccJJ	.	.
8f)	.	8cc	8an)	]
8r	8r	4ryy	8r	.
4r	4r	.	16r	.
*	*	*clefF4	*clefF4	*
.	.	.	(16FLL	p
.	.	8ryy	16E-X 16G	.
.	.	.	16C 16AJJ)	.
*v	*v	*	*	*
=9	=9	=9	=9
2.BBB-	2.B-	8..BB- (>8..DL	.
.	.	32C 32E-Jkk)	.
.	.	4D 4F	.
.	.	4D 4F	.
*	*v	*v	*
*	*clefG2	*
=10	=10	=10
2BB-/ 2D/ 2F/	([8ddL	.
.	16.ddSsSL]	.
.	32ee-JJk	.
.	4ff)	.
*	*clefF4	*
4BBB- 4BB-	4D 4F 4B-	.
=11	=11	=11
*	*^	*
2.FFF 2.FF	2.A	8..C (>8..E-L	.
.	.	32D 32FJkk)	.
.	.	4E- 4G-	.
.	.	4E- 4G-	.
*	*v	*v	*
*	*clefG2	*
!!LO:LB:g=original
=12	=12	=12
4FF\ 4E-\ 4G-\	([8cccL	.
.	16.cccSSSL]	.
.	32dddJJk	.
4r	4eee-)	.
4B- 4c	4e- 4g-	sf
=13	=13	=13
*	*^	*
8..A (8..cL	2f	8e-	.
.	.	8re	.
32Bn 32dJkk)	.	.	.
4c 4e-	.	4re	.
4c 4e-	4rff	4re	.
*	*v	*v	*
=14	=14	=14
*^	*	*
*	*^	*	*
4c\	2e-/	2F\	([8cccL	.
!	!	!	!LO:TURN:lacc=n	!
.	.	.	16.cccSSsL]	.
.	.	.	32dddJJk	.
4A\	.	.	4eee-)	.
*	*v	*v	*	*
(4F# 4c 4e-	4ryy	4a (4ee-	.
*v	*v	*	*
=15	=15	=15
*	*^	*
8G 8B- 8d)	4ryy	8b- 8dd)	.
8r	.	8r	.
!	!LO:DY:rj	!	!
4r	2ggz	4r	.
!	!	!	!LO:DY:rj
8En' 8B-' 8d-'	.	8g'> 8b-'> 8dd-'>	f
8r	.	8r	.
=16	=16	=16	=16
!	!	!	!LO:DY:a:rj
4r	2ff	4r	p
!	!	!	!LO:DY:rj
8F' 8B-' 8dn'	.	8f'> 8b-'> 8ddn'>	p
8r	.	8r	.
8FF'\ 8F'\	4ryy	8c' 8e-' 8a'	.
8r	.	8r	.
*	*v	*v	*
!!LO:LB:g=original
=17	=17	=17
8BBB- 8BB-	8B-' 8d' 8b-'	.
16r	8r	.
(48BB-LLL	.	.
48BBB-	.	.
48BB-JJJ)	.	.
8BBB-'	4r	.
16r	.	.
(48BB-LLL	.	.
48BBB-	.	.
48BB-JJJ)	.	.
8BBB-'	4r	.
16r	.	.
(48BB-LLL	.	.
48BBB-	.	.
48BB-JJJ)	.	.
*	*clefF4	*
=18	=18	=18
!	!	!LO:DY:t=%s sostenuto
8BBB-'	4G 4B- (4e-	p
8r	.	.
4r	4F 4B- 4d	.
4r	4En 4B- 4c#)	.
=19	=19	=19
8r	4En [4B- ((4c#	.
16r	.	.
*Xtuplet	*	*
(48BB-LLL	.	.
48BBB-	.	.
48BB-JJJ)	.	.
8BBB-'	8F 8B-] 8d))	.
16r	8r	.
(48BB-LLL	.	.
48BBB-	.	.
48BB-JJJ)	.	.
8BBB-'	4r	.
16r	.	.
(48BB-LLL	.	.
48BBB-	.	.
48BB-JJJ)	.	.
=20	=20	=20
*	*^	*
8BBB-'	([4cn	2E-X 2G	.
8r	.	.	.
!	!LO:TURN:lacc=n	!	!
4r	8cSSsL]	.	.
.	8e-	.	.
4r	8c	4E- 4G-	.
.	8AJ)	.	.
*	*v	*v	*
!!LO:LB:g=original
=21	=21	=21
8r	4E- 4G- 4A ((4c	.
16r	.	.
*tuplet	*	*
(48BB-LLL	.	.
48BBB-	.	.
48BB-JJJ)	.	.
8BBB-'	8D 8F 8B-))	.
16r	8r	.
(48BB-LLL	.	.
48BBB-	.	.
48BB-JJJ)	.	.
8BBB-'	4r	.
16r	.	.
(48BB-LLL	.	.
48BBB-	.	.
48BB-JJJ)	.	.
*	*clefG2	*
=22	=22	=22
8BBB-'	(4d 4b-	<
8r	.	.
4r	4B- 4d 4g	.
4r	4A) 4d 4f	.
=23	=23	=23
8r	4.G 4.c 4.en	.
16r	.	.
*Xtuplet	*	*
(48CLLL	.	.
48CC	.	.
48CJJJ)	.	.
8CC'	.	.
16r	8G 8c (>8eL	.
*clefG2	*	*
(48cccLLL	.	.
48cc	.	.
48cccJJJ)	.	.
8cc'	8A 8c 8f	.
8r	8B- 8c 8gJ)	.
*clefF4	*	*
!!LO:LB:g=original
=24	=24	=24
8r	(>8.B- 8.c 8.gL	.
16r	.	.
(48CLLL	16G# 16c 16enJk)	.
48CC	.	.
48CJJJ)	.	.
8CC'	8A' 8c' 8f'	.
16r	8A 8c (>8fL	.
*clefG2	*	*
(48cccLLL	.	.
48cc	.	.
48cccJJJ)	.	.
8cc'	8c 8en 8gn	<
8r	8c 8f 8aJ)	.
*clefF4	*	*
=25	=25	=25
*	*^	*
8r	(8.f 8.aL	[4c	.
16r	.	.	.
(48CLLL	16d# 16f#Jk)	.	.
48CC	.	.	.
48CJJJ)	.	.	.
8CC'	8c]' 8en' 8g'	2ryy	.
16r	8c 8e (>8gL	.	.
*clefG2	*	*	*
(48cccLLL	.	.	.
48cc	.	.	.
48cccJJJ)	.	.	.
8cc'	8c 8fn 8a	.	.
8r	8c 8g 8b-J)	.	.
*clefF4	*	*	*
=26	=26	=26	=26
8r	8.g (8.b-L	[4c	.
16r	.	.	.
(48CLLL	16en 16g#Jk)	.	.
48CC	.	.	.
48CJJJ)	.	.	.
8CC'	8c]' 8f' 8a'	2ryy	.
16r	8c 8f (>8aL	.	.
*clefG2	*	*	*
(48cccLLL	.	.	.
48cc	.	.	.
48cccJJJ)	.	.	.
8cc'	8d 8f 8a- 8bn	.	f
16r	8d' 8f' 8a-' 8b'J)	.	.
(48cccLLL	.	.	.
48cc	.	.	.
48cccJJJ)	.	.	.
*clefF4	*	*	*
*	*v	*v	*
!!LO:LB:g=original
=27	=27	=27
8r	(8en 8g 8cc	p
16r	4c) 4e 4g	.
(32CLLL	.	<
32CCJJJ)	.	.
8C'	.	.
16r	8c 8e 8gL	[ >
*clefG2	*	*
(32cccLLL	.	]
32ccJJJ)	.	.
8ccc'	8d 8f 8bn	.
8r	8d 8f 8gJ	.
*clefF4	*	*
=28	=28	=28
8r	8c 8en (>8cc	<
16r	4c 4e 4g)	.
(32CLLL	.	[ >
32CCJJJ)	.	.
8C'	.	.
16r	8c 8e (>8gL	]
*clefG2	*	*
(32cccLLL	.	.
32ccJJJ)	.	.
8ccc'	8d 8f 8bn	.
8r	8d 8f 8gJ)	.
*clefF4	*	*
=29	=29	=29
8r	8c 8en (>8cc	.
16r	4c 4e 4g)	.
(32CLLL	.	.
32CCJJJ)	.	.
8C'	.	.
*	*clefF4	*
16r	4G 4c 4en	>
(32CLLL	.	.
32CCJJJ)	.	.
8C'	.	.
16r	[8En [8G [8c	.
(32CLLL	.	.
32CCJJJ)	.	.
!!LO:LB:g=original
=30	=30	=30
*^	*	*
4.ryy	8C'	8E] 8G] 8c]	.
.	(<8cL	8r	<
.	8Bn	4r	.
4c	8B-	.	.
*	*	*clefG2	*
.	8A	16r	.
.	.	32d'LLL	.
.	.	32en'JJJ	.
8B-	8GJ)	32f'LLL	<
.	.	32g'	.
.	.	32a'	.
.	.	32b-'JJJ	[[
*v	*v	*	*
=31	=31	=31
*	*^	*
!	!LO:TX:a:i:t=cantabile	!	!LO:DY:t=%s dolce
8FF	([4cc	4r	p
(8FL	.	.	.
8A 8c	8..ccL]	4f	.
8F	.	.	.
.	32aJkk	.	.
8B- 8d	8..ffL	4f	.
8FJ)	.	.	.
.	32ddJkk)	.	.
=32	=32	=32	=32
8A (8cL	([4cc	4r	.
8F	.	.	.
8A 8c	8..ccL]	4f	.
8F	.	.	.
.	32aJkk	.	.
8D	8..b-L	(8fL	.
8BB-J)	.	8dJ)	.
.	32gJkk)	.	.
=33	=33	=33	=33
8CC	(2f	8rA	.
(8CL	.	8A	.
8F 8A	.	4c	.
8C	.	.	.
8En 8G	16aLL	4c	.
.	16g	.	.
8CJ)	16f	.	.
.	16gJJ)	.	.
!!LO:LB:g=original
=34	=34	=34	=34
*^	*	*	*
(<8EnL	4.FF	(8..gL	[4c	.
8C	.	.	.	.
.	.	32g#Jkk	.	.
8FJ)	.	8a)	8c]	.
(8AAL	4.ryy	8r	4.ryy	.
8BB-	.	32r	.	.
.	.	32c'LLL	.	<
.	.	32d'	.	.
.	.	32en'	.	.
8GGJ)	.	32f'	.	.
.	.	32gny'	.	.
.	.	32a'	.	.
.	.	32b-'JJJ	.	.
*v	*v	*	*	*
=35	=35	=35	=35
8FF	([4cc	8.re	p
(8FL	.	.	.
.	.	(>16en	.
8A 8c	8..ccL]	)2f	.
8F	.	.	.
.	32aJkk	.	.
8B- 8d	8..ffL	.	.
8FJ)	.	.	.
.	32ddJkk)	.	.
=36	=36	=36	=36
8A (8cL	([4cc	8.r	.
8F	.	.	.
.	.	(>16en	.
8A 8c	8..ccL]	4f)	.
8F	.	.	.
.	32aJkk	.	.
8D	16ccLK	(8fL	.
.	8b-	.	.
8BB-J)	.	8dJ)	.
.	16gJk)	.	.
*	*clefF4	*clefF4	*
=37	=37	=37	=37
2C	(2f	(8AL	<
.	.	8F 8A	.
.	.	8A 8c	.
.	.	8F 8A	.
4CC	4c)	8En 8G	.
.	.	8C 8EJ)	.
!!LO:LB:g=original
=38	=38	=38	=38
*tuplet	*	*	*
8FFF 8FF	8F 8A	8C	p
16r	8r	8r	.
!	!	!	!LO:DY:b=2:rj
(48FFLLL	.	.	pp
48FFF	.	.	.
48FFJJJ)	.	.	.
8FFF''	2ryy	4r	.
16r	.	.	.
(48FFLLL	.	.	.
48FFF	.	.	.
48FFJJJ)	.	.	.
8FFF'	.	8r	.
*	*clefG2	*clefG2	*
8r	.	8f	p
=39	=39	=39	=39
8r	(>4f	4ryy	.
16r	.	.	.
*Xtuplet	*	*	*
(48FFLLL	.	.	.
48FFF	.	.	.
48FFJJJ)	.	.	.
8FFF'	4.g-)	2A 2c 2e-	.
16r	.	.	.
(48FFLLL	.	.	<
48FFF	.	.	.
48FFJJJ)	.	.	.
8FFF'	.	.	.
8r	8g-	.	.
=40	=40	=40	=40
8r	(>[4g-	4ryy	.
16r	.	.	.
(48FFLLL	.	.	.
48FFF	.	.	.
48FFJJJ)	.	.	.
8FFF'	4.a)	2c 2e- 2g-]	.
16r	.	.	.
(48FFLLL	.	.	.
48FFF	.	.	.
48FFJJJ)	.	.	.
8FFF'	.	.	.
8r	8a	.	.
=41	=41	=41	=41
8r	(>[4a	4ryy	.
16r	.	.	.
(48FFLLL	.	.	.
48FFF	.	.	.
48FFJJJ)	.	.	.
8FFF'	4.cc	2e- 2g- 2a])	.
16r	.	.	.
(48FFLLL	.	.	.
48FFF	.	.	.
48FFJJJ)	.	.	.
8FFF'	.	.	.
8r	8cc	.	.
*	*v	*v	*
!!LO:LB:g=original
=42	=42	=42
8r	(8ccL	.
16r	[8ee-J)	sf
*tuplet	*	*
48A (48cLLL	.	.
48F	.	.
48A 48cJJJ)	.	.
8F'	(16ee-LL]	.
.	32ddL	.
.	32ccJJJ	.
8r	32b-LLL	>
.	32a	.
.	32g	.
.	32fJJJ	.
4r	32enLLL	.
.	32e-	.
.	32d	.
.	32cJJJ	.
.	32B-LLL	.
.	32A	.
.	32e-	.
.	32AJJJ)	.
*	*clefF4	*
=43	=43	=43
*	*^	*
2.BBB- 2.BB-	2.D 2.B-	(>8..DL	p
.	.	32E-Jkk	.
.	.	4F	.
.	.	4F)	.
*	*v	*v	*
*	*clefG2	*
=44	=44	=44
2BB- 2D 2F	([8ddL	.
.	16.ddSsSL]	.
.	32ee-JJk	.
.	4ff)	.
*	*clefF4	*
4BBB- 4FF 4BB-	4D 4B-	.
=45	=45	=45
*	*^	*
2.CC 2.FF 2.C	2.E- 2.A	(>8..E-L	.
.	.	32FJkk	.
.	.	4G-	.
.	.	4G-)	.
*	*v	*v	*
*	*clefG2	*
!!LO:LB:g=original
=46	=46	=46
*^	*	*
2c 2e-	(4G-	([8aaL	.
.	.	16.aaSsSL]	.
.	.	32bb-JJk	.
.	4F)	4ccc)	.
4ryy	4AA\ 4F\	4c 4e-	.
=47	=47	=47	=47
*	*^	*	*
(8..A-L	2.BBB- 2.BB-	2.F	2.d	.
32B-Jkk	.	.	.	.
4c-	.	.	.	.
4c-)	.	.	.	.
*v	*v	*	*	*
*v	*v	*	*
*clefG2	*	*
=48	=48	=48
*^	*	*
2f 2a-	(4c-	([8ddL	<
.	.	16.ddSsSL]	.
.	.	32ee-JJk	.
.	4B-)	4ff)	.
*v	*v	*	*
*clefF4	*	*
*^	*	*
4ryy	4D 4B-	4a- 4ff	sf
=49	=49	=49	=49
*	*	*^	*
(8B-L	4.E-	(4ff	4.g	p
8Bn	.	.	.	.
8c)	.	8ee-L	.	<
8d	8FL	8dd)	8b-L	.
8e-	(8G'	(8cc'	8b-	.
8enJ	8G'J)	8cc'J)	8b-J	[[
=50	=50	=50	=50	=50
(4en	4.F	8ccTL	(4b-	>
.	.	(<16qbnLL	.	.
.	.	16qccJJ	.	.
.	.	16ddL)	.	.
.	.	16ccJJ	.	.
4f)	.	8cc	8a)	]
.	8rD	4.ryy	8r	.
*	*	*clefF4	*clefF4	*
4r	4r	.	32r	.
.	.	.	(>32FLLL	p
.	.	.	32G	.
.	.	.	32F	.
.	.	.	32En	.
.	.	.	32F	.
.	.	.	32E- 32G	.
.	.	.	32C 32AJJJ)	.
*v	*v	*	*	*
!!LO:LB:g=original
=51	=51	=51	=51
8BBB-'	2.B-	8..BB- (>8..DL	.
8r	.	.	.
.	.	32C 32E-Jkk	.
*clefG2	*	*	*
32r	.	4D 4F)	.
(32bb-LLL	.	.	.
32ddd	.	.	.
32bb-	.	.	.
32ff	.	.	.
32bb-	.	.	.
32dd	.	.	.
32ffJJJ	.	.	.
32b-LLL	.	4D 4F	.
32dd	.	.	.
32f	.	.	.
32b-	.	.	.
32d	.	.	.
32f	.	.	.
32B-	.	.	.
32dJJJ	.	.	.
*clefF4	*	*	*
*	*v	*v	*
*	*clefG2	*
=52	=52	=52
32FLLL	([8ddL	.
32B-	.	.
32D	.	.
32F	.	.
32BB-	16.ddssSL]	.
32D	.	.
32FF	.	.
32BB-JJJ	32ee-JJk	.
32DDLLL	4ff)	.
32BBB-	.	.
32DD	.	.
32FF	.	.
32BB-	.	.
32DD	.	.
32FF	.	.
32BB-JJJ	.	.
32DLLL	4B-	.
32BB-	.	.
32FF	.	.
32DD	.	.
32BB-	.	.
32FF	.	.
32DD	.	.
32BBB-JJJ)	.	.
*	*clefF4	*
!!LO:LB:g=original
=53	=53	=53
*	*^	*
8FFF'	2.A	(>8..C 8..E-L	.
8r	.	.	.
.	.	32D 32FJkk	.
*clefG2	*	*	*
32r	.	4E- 4G-)	.
(32cccLLL	.	.	.
32eee-	.	.	.
32ccc	.	.	.
32aa	.	.	.
32ccc	.	.	.
32gg-	.	.	.
32aaJJJ	.	.	.
32ee-LLL	.	4E- 4G-	<
32gg-	.	.	.
32cc	.	.	.
32ee-	.	.	.
32a	.	.	.
32cc	.	.	.
32g-	.	.	.
32aJJJ	.	.	.
*clefF4	*	*	*
*	*v	*v	*
*	*clefG2	*
=54	=54	=54
32e-LLL	([8cccL	.
32g-	.	.
32c	.	.
32e-	.	.
!	!LO:TURN:lacc=n	!
32A	16.cccsSSsL]	.
32c	.	.
32G-	.	.
32AJJJ	32dddJJk	.
32CLLL	)4eee-	.
32G-	.	.
32E-	.	.
32A	.	.
32G-	.	.
32c	.	.
32A	.	.
32G-JJJ	.	.
!	!LO:DY:a:rj	!
32r	4c 4e- 4g-z	.
32E-LLL	.	.
32BB-	.	.
32G-	.	.
32E-	.	.
32B-	.	.
32G-	.	.
32E-JJJ)	.	.
!!LO:LB:g=original
=55	=55	=55
*	*^	*
8AA	[2f	8c (>8e-L	.
8r	.	16.A 16.cL	.
.	.	32Bn 32dJJk)	.
*clefG2	*	*	*
32r	.	4c 4e-	.
32cccLLL	.	.	.
32eee-	.	.	.
32ccc	.	.	.
32aa	.	.	.
32ccc	.	.	.
32ee-	.	.	.
32aaJJJ	.	.	.
32ccLLL<	8f]	8c 8e-	.
32ee-	.	.	.
32a	.	.	.
32cc	.	.	.
32e-	8ryy	16r	.
32a	.	.	.
32c	.	16ccc	.
32e-JJJ	.	.	.
*clefF4	*	*	*
*	*v	*v	*
=56	=56	=56
32ALLL	([8cccL	.
32c	.	.
32F	.	.
32A	.	.
!	!LO:TURN:lacc=n	!
32C	16.cccSSsL]	.
32F	.	.
32AA	.	.
32CJJJ	32dddJJk	.
32FFLLL	4eee-)	.
32AA	.	.
32CC	.	.
32FF	.	.
32AAA	.	.
32CC	.	.
32FFF	.	.
32AAAJJJ	.	.
32r	4a 4cc 4ee-z	.
(32FFF#LLL	.	.
32AAA	.	.
32CC)	.	.
32FF#'	.	.
32AA'	.	.
32C'	.	.
32F#'JJJ	.	.
!!LO:LB:g=original
=57	=57	=57
*	*^	*
32r	4ryy	8b- 8dd	.
(32GGGLLL	.	.	.
32BBB-	.	.	.
32DD)	.	.	.
32GG'	.	8r	.
32BB-'	.	.	.
32D'	.	.	.
32G'JJJ	.	.	.
!	!	!	!LO:DY:a:rj
32r	2gg	4r	f
(32EEnLLL<	.	.	.
32GG	.	.	.
32BB-	.	.	.
32En	.	.	.
32G	.	.	.
32B-	.	.	.
32GJJJ)	.	.	.
!	!	!	!LO:DY:rj
32d-'LLL	.	8g' 8b-' 8dd-'	sf
32B-'	.	.	.
32G'	.	.	.
32E'	.	.	.
32D-'	.	8rb	.
32BB-'	.	.	.
32GG'	.	.	.
32EE'JJJ	.	.	.
=58	=58	=58	=58
32r	2ff	4r	p
(32FFLLL	.	.	.
32BB-	.	.	.
32Dn	.	.	.
32F	.	.	.
32D	.	.	.
32BB-	.	.	.
32FFJJJ)	.	.	.
32r	.	8f' 8b-' 8ddn'	.
(32FFLLL	.	.	.
32BB-	.	.	.
32D	.	.	.
32F	.	8rb	.
32D	.	.	.
32BB-	.	.	.
32FFJJJ)	.	.	.
(32E-'LLL	4ryy	8c' 8e-' 8f' 8a'	.
32C'	.	.	.
32AA'	.	.	.
32FF'	.	.	.
32EE-'	.	8rb	.
32CC'	.	.	.
32AAA'	.	.	.
32FFF'JJJ)	.	.	.
*	*v	*v	*
!!LO:LB:g=original
=59	=59	=59
8BBB-'	8B-' 8d' 8f' 8b-'	.
16r	8r	pp
(48BB-LLL	.	.
48BBB-	.	.
48BB-JJJ)	.	.
8BBB-'	4r	.
16r	.	.
(48BB-LLL	.	.
48BBB-	.	.
48BB-JJJ)	.	.
8BBB-'	4r	.
16r	.	.
(48BB-LLL	.	.
48BBB-	.	.
48BB-JJJ)	.	.
*	*clefF4	*
=60	=60	=60
8BBB-'	4A- 4B- (4f	p
8r	.	.
4r	4G 4B- 4e-	.
4r	4F# 4B- 4d)	.
=61	=61	=61
8r	4F# 4B- (4d	.
16r	.	.
*Xtuplet	*	*
(48BB-LLL	.	.
48BBB-	.	.
48BB-JJJ)	.	.
8BBB-'	8G 8B- 8e-)	.
16r	8r	.
(48BB-LLL	.	.
48BBB-	.	.
48BB-JJJ)	.	.
8BBB-'	4r	.
16r	.	.
(48BB-LLL	.	.
48BBB-	.	.
48BB-JJJ)	.	.
*	*clefG2	*
!!LO:LB:g=original
=62	=62	=62
8BBB-'	4B- 4fn (>4a-	.
8r	.	.
4r	4B- 4e- 4g	.
4r	4B- 4d 4f#)	.
=63	=63	=63
*	*^	*
8r	4d (4f#	[2B-	.
16r	.	.	.
(48E-LLL	.	.	.
48EE-	.	.	.
48E-JJJ)	.	.	.
8EE-'	[4e- [4g)	.	.
16r	.	.	.
(48E-LLL	.	.	.
48EE-	.	.	.
48E-JJJ)	.	.	.
8EE-'	8e-] 8gL]	8B-]	.
16r	8gJ	8r	.
(48E-LLL	.	.	.
48EE-	.	.	.
48E-JJJ)	.	.	.
*	*v	*v	*
=64	=64	=64
8EE-'	(4g 4ee-	<
8r	.	.
4r	4e- 4g 4cc	.
4r	4d) 4g 4b-	.
=65	=65	=65
8r	4.c 4.f 4.a	p
16r	.	.
(48FLLL	.	.
48FF	.	.
48FJJJ)	.	.
8FF'	.	.
*clefG2	*	*
16r	8c 8f (>8aL	.
(48fffLLL	.	.
48ff	.	.
48fffJJJ)	.	.
8ff'	8d 8f 8b-	.
8r	8e- 8f 8ccJ)	.
*clefF4	*	*
!!LO:LB:g=original
=66	=66	=66
*	*^	*
8r	8.e- (8.ccL	4f	.
16r	.	.	.
(48FLLL	16c# 16aJk	.	.
48FF	.	.	.
48FJJJ)	.	.	.
8FF'	8d' 8f' 8b-')	2ryy	.
*clefG2	*	*	*
16r	8d 8f (>8b-L	.	.
(48fffLLL	.	.	.
48ff	.	.	.
48fffJJJ)	.	.	.
8ff'	8f 8a 8ccn	.	<
8r	8f 8b- 8ddJ)	.	.
*clefF4	*	*	*
=67	=67	=67	=67
8r	8.b- 8.ddL	[4f	.
16r	.	.	.
(48FLLL	16g# 16bnJk	.	.
48FF	.	.	.
48FJJJ)	.	.	.
8FF'	8a' 8cc'	8f]	.
*clefG2	*	*	*
16r	8f 8a (>8ccL>	4.ryy	.
(48fffLLL	.	.	.
48ff	.	.	.
48fffJJJ)	.	.	.
8ff'	8f 8b- 8dd	.	.
8r	8f 8cc 8ee-J)	.	.
*clefF4	*	*	*
=68	=68	=68	=68
8r	8.cc (8.ee-L	[4f	.
16r	.	.	.
(48FLLL	16a 16cc#Jk	.	.
48FF	.	.	.
48FJJJ)	.	.	.
8FF'	8b-' 8dd')	8f]	.
*clefG2	*	*	*
16r	8f 8b- (>8ddL>	4.ryy	.
(48fffLLL	.	.	.
48ff	.	.	.
48fffJJJ)	.	.	.
8ff'	8g 8b- 8dd- 8een	.	.
16r	8g 8b- 8dd- 8eeJ)	.	.
(48fffLLL	.	.	.
48ff	.	.	.
48fffJJJ)	.	.	.
*clefF4	*	*	*
*	*v	*v	*
!!LO:LB:g=original
=69	=69	=69
8r	8a 8cc (8ff	p <
16r	4f 4a 4cc)	.
*	*	*^
!	!	!	!LO:DY:a=2
(32FLLL<	.	.	p
*	*	*v	*v
32FFJJJ)	.	.
8F'	.	.
*clefG2	*	*
16r	8f 8a (>8ccL>	[[
(32fffLLL	.	>
32ffJJJ)	.	.
8fff'	8g 8b- 8een	.
8r	8g 8b- 8ccJ)	]]
*clefF4	*	*
=70	=70	=70
8r	8f/ 8a/ (>8ff/	p <
16r	4f 4a 4cc)	.
(32FLLL<	.	.
32FFJJJ)	.	.
8F'	.	.
*clefG2	*	*
16r	8f 8a (>8ccL>	[ >
(32fffLLL	.	.
32ffJJJ)	.	.
8fff'	8g 8b- 8een	.
8r	8g 8b- 8ccJ)	]]
*clefF4	*	*
=71	=71	=71
8r	8f/ 8a/ (>8ff/	>
16r	4f 4a 4cc	.
(32FLLL<	.	.
32FFJJJ)	.	.
8F'	.	.
16r	4c 4f 4a	.
(32FLLL<	.	.
32FFJJJ)	.	.
8F'	.	.
16r	[8A [8c [8f)	.
(32FLLL<	.	.
32FFJJJ)	.	.
!!LO:LB:g=original
=72	=72	=72
*^	*	*
4.ryy	8F'	8A] 8c] 8f]	.
!	!	!	!LO:DY:b=2
.	(8fL	8r	<
.	8en	4r	.
4f	8e-	.	.
.	8d	16r	.
!	!	!	!LO:HP:a
.	.	32g'LLL<	<
.	.	32a'JJJ	.
8e-)	8cJ	32b-'LLL	.
.	.	32cc'	.
.	.	32dd'	.
.	.	32ee-'JJJ	[[
*v	*v	*	*
=73	=73	=73
*	*^	*
!	!LO:TX:i:t=cantabile	!	!
8BB-'	[4ff	4r	.
*clefG2	*	*	*
(8B-L	.	.	.
8d 8f	(<8..ffL]	4b-	p
8B-	.	.	.
.	32ddJkk)	.	.
8e- 8g	(<8..bb-L	4b-	.
8B-J)	.	.	.
.	32ggJkk)	.	.
=74	=74	=74	=74
(8d 8fL	[4ff	4r	.
8B-	.	.	.
8d 8f	(8..ffL]	4b-	.
8B-J)	.	.	.
.	32ddJkk)	.	.
*clefF4	*	*	*
8GL	(8..ee-L	8b-L	.
8E-J	.	8gJ	.
.	32ccJkk)	.	.
=75	=75	=75	=75
8FF'	2b-	8r	.
(8FL	.	(>8d	.
8B- 8d	.	4f)	.
8F	.	.	.
8A 8c	(16ddLL	4f	.
.	16cc	.	.
8FJ)	16b-	.	.
.	16ccJJ)	.	.
!!LO:LB:g=original
=76	=76	=76	=76
*^	*	*	*
(8AL	4.BB-	8.ccL	[4f	.
8F	.	.	.	.
.	.	16cc#Jk	.	.
8B-J)	.	8dd	8f]	.
4.ryy	(8DL	4.ryy	8r	.
.	8E-	.	32r	.
.	.	.	32f'LLL	<
.	.	.	32g'	.
.	.	.	32a'	.
.	8CJ)	.	32b-'	.
.	.	.	32ccn	.
.	.	.	32dd'	.
.	.	.	32ee-'JJJ	.
*v	*v	*	*	*
=77	=77	=77	=77
8BB-'	[4ff	8.re	p
*clefG2	*	*	*
(8B-L	.	.	.
.	.	(16a	.
8d 8f	(8..ffL]	2b-)	.
8B-	.	.	.
.	32ddJkk)	.	.
8e- 8g	(8..bb-L	.	.
8B-J)	.	.	.
.	32ggJkk)	.	.
=78	=78	=78	=78
(8d 8fL	[4ff	8.r	.
8B-	.	.	.
.	.	(16a	.
8d 8f	(8..ffL]	4b-)	.
8B-J)	.	.	.
.	32ddJkk)	.	.
*clefF4	*	*	*
(8GL	(16ffLK	8b-L	.
.	8ee-	.	.
8E-J)	.	8gJ	.
.	16ccJk)	.	.
=79	=79	=79	=79
2F	2b-	(8dL	.
.	.	8B- 8d	<
.	.	8d 8f	.
.	.	8B- 8dJ	.
*	*v	*v	*
*	*clefF4	*
*	*^	*
4FFF 4FF	4f	8A 8cL	.
.	.	8F) 8AJ	.
!!LO:LB:g=original
=80	=80	=80	=80
8BBB-	8d	8F 8B-	p
16r	8r	8r	.
*tuplet	*	*	*
!	!	!	!LO:DY:b=2:rj
(48BB-LLL	.	.	pp
48BBB-	.	.	.
48BB-JJJ)	.	.	.
8BBB-'	4r	4r	.
16r	.	.	.
(48BB-LLL	.	.	.
48BBB-	.	.	.
48BB-JJJ)	.	.	.
8BBB-'	8r	4ryy	.
8r	8B-/	.	.
=81	=81	=81	=81
8r	(4B-	4r	.
16r	.	.	.
*Xtuplet	*	*	*
(48BB-LLL	.	.	<
48BBB-	.	.	.
48BB-JJJ)	.	.	.
8BBB-'	4.c-)	2D 2F 2A-	.
16r	.	.	.
(48BB-LLL	.	.	.
48BBB-	.	.	.
48BB-JJJ)	.	.	.
8BBB-'	.	.	.
8r	8c-	.	.
=82	=82	=82	=82
8r	(>[>4c-/	4ryy	.
16r	.	.	.
(48BB-LLL	.	.	.
48BBB-	.	.	.
48BB-JJJ)	.	.	.
8BBB-'	4.d)	2F 2A- 2c-]	.
16r	.	.	.
(48BB-LLL	.	.	.
48BBB-	.	.	.
48BB-JJJ)	.	.	.
8BBB-'	.	.	.
8r	8d	.	.
*	*v	*v	*
*	*clefG2	*
!!LO:LB:g=original
=83	=83	=83
8r	(>[>4d	.
16r	.	.
(48BB-LLL	.	.
48BBB-	.	.
48BB-JJJ)	.	.
8BBB-'	4A- 4c- 4d] 4f	.
16r	.	.
(48BB-LLL	.	.
48BBB-	.	.
48BB-JJJ)	.	.
8BBB-'	4c- 4d 4f 4a-)	.
16r	.	.
(48BB-LLL	.	.
48BBB-	.	.
48BB-JJJ)	.	.
=84	=84	=84
*	*^	*
8BBB-'	(2cc-	4r	>
16r	.	.	.
(48A-LLL	.	.	.
48BB-	.	.	.
48A-JJJ)	.	.	.
8BB-'	.	4d 4f 4a-	.
16r	.	.	.
(48A-LLL	.	.	.
48BB-	.	.	.
48A-JJJ)	.	.	.
8BB-'	8b-L	4d 4f	.
8r	8a-J)	.	.
=85	=85	=85	=85
8r	(4f#	4r	p
16r	.	.	.
(48BB-LLL	.	.	.
48BBB-	.	.	.
48BB-JJJ)	.	.	.
8BBB-'	4.g)	2B- 2e-	.
16r	.	.	<
(48BB-LLL	.	.	.
48BBB-	.	.	.
48BB-JJJ)	.	.	.
8BBB-'	.	.	.
8r	8b-	.	.
!!LO:LB:g=original
=86	=86	=86	=86
8r	(2ee-	4r	.
16r	.	.	.
(48B-LLL	.	.	.
48BB-	.	.	.
48B-JJJ)	.	.	.
*	*	*^	*
8BB-'	.	[>4an	2e-\ 2g-\	sf >
16r	.	.	.	.
(48B-LLL	.	.	.	.
48BB-	.	.	.	.
48B-JJJ)	.	.	.	.
8BB-'	8a] 8ccL	4ryy	.	.
8r	8aJ)	.	.	]
*	*	*v	*v	*
=87	=87	=87	=87
8r	(4cc	4r	p
16r	.	.	.
(48BB-LLL	.	.	.
48BBB-	.	.	.
48BB-JJJ)	.	.	.
8BBB-'	[4b-)	4d 4f	.
16r	.	.	<
(48BB-LLL	.	.	.
48BBB-	.	.	.
48BB-JJJ)	.	.	.
8BBB-'	(8b-L]	4f 4a-	.
8r	8ddJ)	.	.
=88	=88	=88	=88
8r	(8ff	4r	.
16r	4.ee-	.	sf
(48B-LLL	.	.	.
48BB-	.	.	.
48B-JJJ)	.	.	.
8BB-'	.	(8g 8b-L	.
16r	.	[8g- [8anJ	sf
(48B-LLL	.	.	.
48BB-	.	.	.
48B-JJJ)	.	.	.
8BB-'	8ccL	8e- 8g-] 8aL]	.
16r	8aJ	8c 8e- 8g-J))	.
(48B-LLL	.	.	>
48BB-	.	.	.
48B-JJJ)	.	.	]]
*	*v	*v	*
!!LO:LB:g=original
=89	=89	=89
*^	*	*
8..BB- (8..DL	2BB-	8d 8f 8b-	.
.	.	8r	.
32C 32E-Jkk	.	.	.
4D 4F	.	4r	.
4C/ 4E-/)	4ryy	32r	.
.	.	32f'LLL	.
.	.	32en'	.
.	.	32f'	.
.	.	32g'	.
.	.	32a'	.
.	.	32b-'	.
.	.	32cc'JJJ	.
*v	*v	*	*
=90	=90	=90
*	*^	*
8BB- 8D	8..b- (8..ddL	2f	.
8r	.	.	.
.	32cc 32ee-Jkk	.	.
4r	4dd 4ff	.	.
32r	4cc 4ee-)	4f	.
32F'LLL	.	.	.
32En'	.	.	.
32F'	.	.	.
32G'	.	.	.
32A'	.	.	.
32B-'	.	.	.
32c'JJJ	.	.	.
=91	=91	=91	=91
!	!	!	!LO:HP:b=2
8..B- (8..dL	8b- 8dd	8f	<
.	8r	8r	.
32c 32e-Jkk	.	.	.
4d 4f)	4r	4r	.
(4BBB-	4r	4r	p
*	*v	*v	*
=92	=92	=92
2.AAA)	2.r	.
=93	=93	=93
4r	([8cccL	.
!	!LO:TURN:lacc=n	!
.	16.cccSSsL]	.
.	32dddJJk	.
4r	4eee-)	.
4B- 4c 4e-	(4g-	sf
!!LO:LB:g=original
=94	=94	=94
2.A 2.e-	2.f)	.
.	(gn32qLLL<	.
.	f32q	.
.	en32q	.
.	f32q	.
.	g32q	.
.	a32q	.
.	b-32q	.
.	cc32q	.
.	dd32q	.
.	ee-32q	.
.	ff32q	.
.	gg32q	.
.	aa32q	.
.	bb-32qJJJ)	.
=95	=95	=95
4r	([8cccL	.
!	!LO:TURN:lacc=n	!
.	16.cccSSsL]	.
.	32dddJJk	.
4r	4eee-)	.
(((4F# 4c 4e-	((4a 4cc 4ee-	.
=96	=96	=96
*	*^	*
8G 8B- 8d)))	4ryy	8b- 8dd))	.
8r	.	8r	.
!	!LO:DY:rj	!	!
8r	2ggz	4r	.
!LO:DY:rj	!	!	!
8En' 8B-' 8d-'z	.	.	.
4r	.	8g'> 8b-'> 8dd-'>	sf
.	.	8r	.
=97	=97	=97	=97
!	!	!	!LO:DY:a:rj
8r	2ff	4r	p
!	!	!	!LO:DY:b=2:rj
8F' 8B-' 8dn'	.	.	p
8r	.	8f'> 8b-'> 8ddn'>	.
8FFF' 8FF'	.	8r	.
8r	4ryy	8c' 8e-' 8a'	.
8FF' 8F'	.	8r	.
*	*v	*v	*
=98	=98	=98
2.BBB- 2.BB-	8B-' 8d' 8b-'	.
.	(8f 8ffL	.
.	8d 8dd	.
.	8c- 8cc-	.
.	8B- 8b-	.
.	8A-) 8a-J	.
!!LO:LB:g=original
=99	=99	=99
2.BBB- 2.BB-	8G< (>8gL	.
.	8B-< 8b-	.
.	8E-< 8e-	.
.	8G< 8g	.
.	8C< 8c	.
.	16F< 16fL	.
.	16E-< 16e-JJ)	.
=100	=100	=100
*^	*	*
8D/ 8d>/	2.BB-	4.ryy	.
(<8f>\L	.	.	.
8d>\	.	.	.
8c-/	.	4dd	<
8B-/	.	.	.
8A-/J)	.	(8ddt	[[
=101	=101	=101	=101
(8GL	2.BB-	8ffL	>
8B-	.	8ee-J)	.
8E-	.	8r	.
8GJ	.	(4ee-	.
8CL	.	.	]
16FL	.	8at\	.
()16E-JJ	.	.	.
=102	=102	=102	=102
(8DL	4BB-	8b-')	.
16FL	.	16r	.
16E-JJ)	.	(16a\	.
(8DL	4BB-	8b-')	.
16FL	.	16r	.
16E-JJ)	.	16a (16cc	.
(8DL	4BB-	8b-' 8dd')	.
16FL	.	16r	.
16E-JJ)	.	16cc 16aa	.
=103	=103	=103	=103
8D	8BB-	8dd (8bb-L	<
8r	8r	16.dddL	.
.	.	32cccJJk)	.
4r	4r	(4ccc	.
4ryy	8r	8bb-)	p
!	!	!	!LO:DY:b=2:rj
.	8BBB-	8r	p
*v	*v	*	*
==	==	==
*-	*-	*-
!!!RDF**kern: > = above
!!!RDF**kern: < = below
!!!verovio: beamFrenchStyle
!!!LOR: Durand 1915, plates 9327/9328, Paul Dukas, ed.
!!!PED: Dukas, Paul
!!!URL-vhv: https://verovio.humdrum.org/?file=beethoven/sonatas/sonata17-2.krn
!!!URL-pdf: https://github.com/craigsapp/beethoven-piano-sonatas/blob/master/reference-edition/sonata17-2.pdf
!!!ENC: Craig Stuart Sapp
!!!END: 2008/10/30
!!!EED: Craig Stuart Sapp
!!!EEV: 2022/05/13
